content/en/docs/ops/deployment/deployment-models/single-cluster.svg

<svg id="aa22f7b3-e26d-40b1-a9f9-d60375fcb1ae" data-name="single-cluster" xmlns="http://www.w3.org/2000/svg" viewBox="0 0 745.99 684.44"><defs><style>.b197a263-ae7d-4167-a3a4-08ec2cb0b363{fill:#fff}.a737f0f7-e265-49f8-9658-56d24a2cb324{font-size:18.79px;font-family:Roboto-Regular,Roboto}.bb5052a7-fef9-442c-8b12-1afb6f3c4c43{fill:#486baf}.ea4209db-bcb5-43b7-8548-32e9f999fbc9{fill:#e6e6e6}.b158f651-7b2b-4b79-b081-b564d9109c60,.be392ece-95b4-49fc-ac80-0a03262dd949,.e00c5b79-935e-44d4-a885-4684de641c60,.e01ab346-7ed7-43e4-a30d-0b02ea405c8a{fill:none}.e01ab346-7ed7-43e4-a30d-0b02ea405c8a{stroke:#e905ee;stroke-width:3px}.be392ece-95b4-49fc-ac80-0a03262dd949,.e00c5b79-935e-44d4-a885-4684de641c60,.e01ab346-7ed7-43e4-a30d-0b02ea405c8a{stroke-linejoin:round}.e5817e34-6119-41a2-995d-b601140a102d{letter-spacing:.01em}.ab41912e-cc69-4819-a2ef-2e5436f2b1a0{fill:#757575}.b158f651-7b2b-4b79-b081-b564d9109c60,.be392ece-95b4-49fc-ac80-0a03262dd949{stroke:#fff;stroke-width:2px}.b158f651-7b2b-4b79-b081-b564d9109c60,.e00c5b79-935e-44d4-a885-4684de641c60{stroke-linecap:round}.b158f651-7b2b-4b79-b081-b564d9109c60{stroke-miterlimit:10}.e00c5b79-935e-44d4-a885-4684de641c60{stroke:#486baf;stroke-dasharray:6 12;stroke-width:4px}</style></defs><rect x="291.04" y="191.16" width="165.4" height="101.23" rx="3" fill="#e5e5e4"/><rect class="b197a263-ae7d-4167-a3a4-08ec2cb0b363" x="302.85" y="249.44" width="141.77" height="35.44" rx="3"/><text class="a737f0f7-e265-49f8-9658-56d24a2cb324" transform="translate(317.56 272.72)">Cont<tspan x="39.45" y="0" letter-spacing="-.02em">r</tspan><tspan x="45.49" y="0" letter-spacing="0">ol Plane</tspan></text><path id="a06be470-d143-495e-ad1b-cda0c70c2768" data-name="background" class="bb5052a7-fef9-442c-8b12-1afb6f3c4c43" d="M354.66 191.16h38.16v38.16h-38.16z"/><path id="a156c91b-52bf-493d-8be1-c584c0bcd926" data-name="hull" class="b197a263-ae7d-4167-a3a4-08ec2cb0b363" d="M362.2 223.22h23.08l-14.43 4.33-8.65-4.33z"/><path id="b73e072d-2bb6-4eab-a8ea-5991a44df8a9" data-name="mainsail" class="b197a263-ae7d-4167-a3a4-08ec2cb0b363" d="M362.2 221.78l8.65-1.44v-15.87l-8.65 17.31z"/><path id="b6097b37-af21-4a2d-b513-2063a7d725a2" data-name="headsail" class="b197a263-ae7d-4167-a3a4-08ec2cb0b363" d="M372.3 220.34l12.98 1.44-12.98-28.85v27.41z"/><rect class="ea4209db-bcb5-43b7-8548-32e9f999fbc9" x="433.61" y="396.16" width="265.23" height="96.62" rx="3"/><rect class="b197a263-ae7d-4167-a3a4-08ec2cb0b363" x="445.21" y="408.24" width="72.46" height="72.46" rx="3"/><path class="e01ab346-7ed7-43e4-a30d-0b02ea405c8a" d="M499.24 454.74v-20.53l-17.8-10.27-17.79 10.27v20.53L481.44 465l17.8-10.26z"/><rect class="b197a263-ae7d-4167-a3a4-08ec2cb0b363" x="529.75" y="408.24" width="157.01" height="72.46" rx="3"/><text class="a737f0f7-e265-49f8-9658-56d24a2cb324" transform="translate(600.42 450.97)">Se<tspan class="e5817e34-6119-41a2-995d-b601140a102d" x="21.1" y="0">r</tspan><tspan x="27.62" y="0">vice B</tspan></text><circle class="ab41912e-cc69-4819-a2ef-2e5436f2b1a0" cx="565.99" cy="444.47" r="24.15"/><path class="be392ece-95b4-49fc-ac80-0a03262dd949" d="M557.41 435.73h17.16v17.16h-17.16z"/><path class="b158f651-7b2b-4b79-b081-b564d9109c60" d="M560.58 435.73v-4.13m5.41 4.13v-4.13m5.4 4.13v-4.13m-10.81 25.74v-4.13m5.41 4.13v-4.13m5.4 4.13v-4.13m-14.14-3.33h-4.13m4.13-5.41h-4.13m4.13-5.4h-4.13m25.74 10.81h-4.13m4.13-5.41h-4.13m4.13-5.4h-4.13"/><rect class="b197a263-ae7d-4167-a3a4-08ec2cb0b363" x="562.17" y="440.5" width="7.63" height="7.63" rx="2"/><rect class="ea4209db-bcb5-43b7-8548-32e9f999fbc9" x="47.13" y="396.16" width="265.23" height="96.62" rx="3"/><rect class="b197a263-ae7d-4167-a3a4-08ec2cb0b363" x="58.74" y="408.24" width="157.01" height="72.46" rx="3"/><text class="a737f0f7-e265-49f8-9658-56d24a2cb324" transform="translate(129.12 450.97)">Se<tspan class="e5817e34-6119-41a2-995d-b601140a102d" x="21.1" y="0">r</tspan><tspan x="27.62" y="0">vice A</tspan></text><circle class="ab41912e-cc69-4819-a2ef-2e5436f2b1a0" cx="94.97" cy="444.47" r="24.15"/><path class="be392ece-95b4-49fc-ac80-0a03262dd949" d="M86.39 435.73h17.16v17.16H86.39z"/><path class="b158f651-7b2b-4b79-b081-b564d9109c60" d="M89.56 435.73v-4.13m5.41 4.13v-4.13m5.4 4.13v-4.13m-10.81 25.74v-4.13m5.41 4.13v-4.13m5.4 4.13v-4.13m-14.14-3.33H82.1m4.13-5.41H82.1m4.13-5.4H82.1m25.74 10.81h-4.13m4.13-5.41h-4.13m4.13-5.4h-4.13"/><rect class="b197a263-ae7d-4167-a3a4-08ec2cb0b363" x="91.15" y="440.5" width="7.63" height="7.63" rx="2"/><rect class="b197a263-ae7d-4167-a3a4-08ec2cb0b363" x="227.82" y="408.24" width="72.46" height="72.46" rx="3"/><path class="e01ab346-7ed7-43e4-a30d-0b02ea405c8a" d="M281.85 454.74v-20.53l-17.8-10.27-17.79 10.27v20.53L264.05 465l17.8-10.26z"/><path class="e00c5b79-935e-44d4-a885-4684de641c60" d="M372.3 292.39v55.66H264.05v53.01"/><path class="bb5052a7-fef9-442c-8b12-1afb6f3c4c43" d="M259.06 399.61l4.99 8.63 4.99-8.63h-9.98z"/><path class="e00c5b79-935e-44d4-a885-4684de641c60" d="M372.75 292.39v55.66h108.24v53.01"/><path class="bb5052a7-fef9-442c-8b12-1afb6f3c4c43" d="M476.01 399.61l4.98 8.63 4.99-8.63h-9.97z"/><path stroke="#090" stroke-width="4" stroke-miterlimit="10" fill="none" d="M307.46 444.66h130.58"/><path d="M308.92 449.65l-8.64-4.99 8.64-4.98v9.97zm127.66 0l8.63-4.99-8.63-4.98v9.97z" fill="#090"/><rect x=".5" y="13.7" width="744.99" height="670.24" rx="10" stroke="#466bb0" stroke-dasharray="9.98 9.98" stroke-linejoin="round" fill="none"/><text transform="translate(.48 10.27)" font-size="12" font-family="Roboto-Regular,Roboto">Istio Mesh</text><text transform="translate(29.28 41.17)" font-size="13.86" font-family="Roboto-Regular,Roboto">Cluster</text><rect x="29.36" y="44.64" width="689.63" height="620.44" rx="10" stroke="#fbb040" stroke-width="2" stroke-linejoin="round" fill="none"/></svg>

<svg id="aa22f7b3-e26d-40b1-a9f9-d60375fcb1ae" data-name="single-cluster" xmlns="http://www.w3.org/2000/svg" viewBox="0 0 745.99 684.44"><defs><style>.b197a263-ae7d-4167-a3a4-08ec2cb0b363{fill:#fff}.a737f0f7-e265-49f8-9658-56d24a2cb324{font-size:18.79px;font-family:Roboto-Regular,Roboto}.bb5052a7-fef9-442c-8b12-1afb6f3c4c43{fill:#486baf}.ea4209db-bcb5-43b7-8548-32e9f999fbc9{fill:#e6e6e6}.b158f651-7b2b-4b79-b081-b564d9109c60,.be392ece-95b4-49fc-ac80-0a03262dd949,.e00c5b79-935e-44d4-a885-4684de641c60,.e01ab346-7ed7-43e4-a30d-0b02ea405c8a{fill:none}.e01ab346-7ed7-43e4-a30d-0b02ea405c8a{stroke:#e905ee;stroke-width:3px}.be392ece-95b4-49fc-ac80-0a03262dd949,.e00c5b79-935e-44d4-a885-4684de641c60,.e01ab346-7ed7-43e4-a30d-0b02ea405c8a{stroke-linejoin:round}.e5817e34-6119-41a2-995d-b601140a102d{letter-spacing:.01em}.ab41912e-cc69-4819-a2ef-2e5436f2b1a0{fill:#757575}.b158f651-7b2b-4b79-b081-b564d9109c60,.be392ece-95b4-49fc-ac80-0a03262dd949{stroke:#fff;stroke-width:2px}.b158f651-7b2b-4b79-b081-b564d9109c60,.e00c5b79-935e-44d4-a885-4684de641c60{stroke-linecap:round}.b158f651-7b2b-4b79-b081-b564d9109c60{stroke-miterlimit:10}.e00c5b79-935e-44d4-a885-4684de641c60{stroke:#486baf;stroke-dasharray:6 12;stroke-width:4px}.b118ed9b-90f0-4afd-918f-a6be969c8d1c{fill:#090}</style></defs><rect x="291.04" y="191.16" width="165.4" height="101.23" rx="3" fill="#e5e5e4"/><rect class="b197a263-ae7d-4167-a3a4-08ec2cb0b363" x="302.85" y="249.44" width="141.77" height="35.44" rx="3"/><text class="a737f0f7-e265-49f8-9658-56d24a2cb324" transform="translate(317.56 272.72)">Cont<tspan x="39.45" y="0" letter-spacing="-.02em">r</tspan><tspan x="45.49" y="0" letter-spacing="0">ol Plane</tspan></text><path id="a06be470-d143-495e-ad1b-cda0c70c2768" data-name="background" class="bb5052a7-fef9-442c-8b12-1afb6f3c4c43" d="M354.66 191.16h38.16v38.16h-38.16z"/><path id="a156c91b-52bf-493d-8be1-c584c0bcd926" data-name="hull" class="b197a263-ae7d-4167-a3a4-08ec2cb0b363" d="M362.2 223.22h23.08l-14.43 4.33-8.65-4.33z"/><path id="b73e072d-2bb6-4eab-a8ea-5991a44df8a9" data-name="mainsail" class="b197a263-ae7d-4167-a3a4-08ec2cb0b363" d="M362.2 221.78l8.65-1.44v-15.87l-8.65 17.31z"/><path id="b6097b37-af21-4a2d-b513-2063a7d725a2" data-name="headsail" class="b197a263-ae7d-4167-a3a4-08ec2cb0b363" d="M372.3 220.34l12.98 1.44-12.98-28.85v27.41z"/><rect class="ea4209db-bcb5-43b7-8548-32e9f999fbc9" x="433.61" y="396.16" width="265.23" height="96.62" rx="3"/><rect class="b197a263-ae7d-4167-a3a4-08ec2cb0b363" x="445.21" y="408.24" width="72.46" height="72.46" rx="3"/><path class="e01ab346-7ed7-43e4-a30d-0b02ea405c8a" d="M499.24 454.74v-20.53l-17.8-10.27-17.79 10.27v20.53L481.44 465l17.8-10.26z"/><rect class="b197a263-ae7d-4167-a3a4-08ec2cb0b363" x="529.75" y="408.24" width="157.01" height="72.46" rx="3"/><text class="a737f0f7-e265-49f8-9658-56d24a2cb324" transform="translate(600.42 450.97)">Se<tspan class="e5817e34-6119-41a2-995d-b601140a102d" x="21.1" y="0">r</tspan><tspan x="27.62" y="0">vice B</tspan></text><circle class="ab41912e-cc69-4819-a2ef-2e5436f2b1a0" cx="565.99" cy="444.47" r="24.15"/><path class="be392ece-95b4-49fc-ac80-0a03262dd949" d="M557.41 435.73h17.16v17.16h-17.16z"/><path class="b158f651-7b2b-4b79-b081-b564d9109c60" d="M560.58 435.73v-4.13M565.99 435.73v-4.13M571.39 435.73v-4.13M560.58 457.34v-4.13M565.99 457.34v-4.13M571.39 457.34v-4.13M557.25 449.88h-4.13M557.25 444.47h-4.13M557.25 439.07h-4.13M578.86 449.88h-4.13M578.86 444.47h-4.13M578.86 439.07h-4.13"/><rect class="b197a263-ae7d-4167-a3a4-08ec2cb0b363" x="562.17" y="440.5" width="7.63" height="7.63" rx="2"/><rect class="ea4209db-bcb5-43b7-8548-32e9f999fbc9" x="47.13" y="396.16" width="265.23" height="96.62" rx="3"/><rect class="b197a263-ae7d-4167-a3a4-08ec2cb0b363" x="58.74" y="408.24" width="157.01" height="72.46" rx="3"/><text class="a737f0f7-e265-49f8-9658-56d24a2cb324" transform="translate(129.12 450.97)">Se<tspan class="e5817e34-6119-41a2-995d-b601140a102d" x="21.1" y="0">r</tspan><tspan x="27.62" y="0">vice A</tspan></text><circle class="ab41912e-cc69-4819-a2ef-2e5436f2b1a0" cx="94.97" cy="444.47" r="24.15"/><path class="be392ece-95b4-49fc-ac80-0a03262dd949" d="M86.39 435.73h17.16v17.16H86.39z"/><path class="b158f651-7b2b-4b79-b081-b564d9109c60" d="M89.56 435.73v-4.13M94.97 435.73v-4.13M100.37 435.73v-4.13M89.56 457.34v-4.13M94.97 457.34v-4.13M100.37 457.34v-4.13M86.23 449.88H82.1M86.23 444.47H82.1M86.23 439.07H82.1M107.84 449.88h-4.13M107.84 444.47h-4.13M107.84 439.07h-4.13"/><rect class="b197a263-ae7d-4167-a3a4-08ec2cb0b363" x="91.15" y="440.5" width="7.63" height="7.63" rx="2"/><rect class="b197a263-ae7d-4167-a3a4-08ec2cb0b363" x="227.82" y="408.24" width="72.46" height="72.46" rx="3"/><path class="e01ab346-7ed7-43e4-a30d-0b02ea405c8a" d="M281.85 454.74v-20.53l-17.8-10.27-17.79 10.27v20.53L264.05 465l17.8-10.26z"/><path class="e00c5b79-935e-44d4-a885-4684de641c60" d="M372.3 292.39v55.66H264.05v53.01"/><path class="bb5052a7-fef9-442c-8b12-1afb6f3c4c43" d="M259.06 399.61l4.99 8.63 4.99-8.63h-9.98z"/><path class="e00c5b79-935e-44d4-a885-4684de641c60" d="M372.75 292.39v55.66h108.24v53.01"/><path class="bb5052a7-fef9-442c-8b12-1afb6f3c4c43" d="M476.01 399.61l4.98 8.63 4.99-8.63h-9.97z"/><path stroke="#090" stroke-width="4" stroke-miterlimit="10" fill="none" d="M307.46 444.66h130.58"/><path class="b118ed9b-90f0-4afd-918f-a6be969c8d1c" d="M308.92 449.65l-8.64-4.99 8.64-4.98v9.97zM436.58 449.65l8.63-4.99-8.63-4.98v9.97z"/><rect x=".5" y="13.7" width="744.99" height="670.24" rx="10" stroke="#466bb0" stroke-dasharray="9.98 9.98" stroke-linejoin="round" fill="none"/><text transform="translate(.48 10.27)" font-size="12" font-family="Roboto-Regular,Roboto">Istio Mesh</text><text transform="translate(29.28 41.17)" font-size="13.86" font-family="Roboto-Regular,Roboto">Cluster</text><rect x="29.36" y="44.64" width="689.63" height="620.44" rx="10" stroke="#fbb040" stroke-width="2" stroke-linejoin="round" fill="none"/></svg>
